X: 681
T: Eviç Sazsemâîsi
C: İsmail Hakkı Bey
O: Turkey
F: http://compmusic.upf.edu/node/140
N: evic--sazsemaisi--aksaksemai----muallim_ismail_hakki_bey
N: makam= evic
N: form= sazsemaisi
N: usul= aksaksemai = 10/8
M: 10/8
L: 1/16
K: C _1/4B ^f ^c 
Q: 1/4=120
%%MIDI tuningsystem comma53
f4 ^egf3/2e/ fag2 abag f2e2  | a2g2 fgf^e ded2 e2f4z2  | 
w:  1. HANE  |   | 
^efga gfg3f=c'2 baag fed2  | =c'2b2 abag2ff3/2^e/ def4z2  | 
w:   |   | 
f4 ^egf3/2e/ fag2 abag f2e2  | a2g2 fgf^e ded2 e2f4z2  | 
w:  1. HANE  |   | 
^efga gfg3f=c'2 baag fed2  | =c'2b2 abag2ff3/2^e/ def4z2  | 
w:   |   | 
a2g2 f2a4z2 gba2 g2fe  | defa g=fed dec3/2d/ cBA4z2  | 
w:  TESLİM  |   | 
d2=cB AGA2 B2c2 B2A2 G2F2  | B2AB AB=c2 BAAG F^EF4z2  | 
w:   |   | 
a2g2 f2a4z2 gba2 g2fe  | defa g=fed dec3/2d/ cBA4z2  | 
w:  TESLİM  |   | 
d2=cB AGA2 B2c2 B2A2 G2F2  | B2AB AB=c2 BAAG F^EF4z2  | 
w:   |   | 
d4 fed3fe2 d2c2 =B2A2  | d2f2 a2f3/2e/ dfe3/2d/ ced4z2  | 
w:  2. HANE  |   | 
f2d2 c2e3a^g2 a2=g2 fed2  | =c'2b2 abag2ff3/2^e/ def4z2  | 
w:   |   | 
d4 fed3fe2 d2c2 =B2A2  | d2f2 a2f3/2e/ dfe3/2d/ ced4z2  | 
w:  2. HANE  |   | 
f2d2 c2e3a^g2 a2=g2 fed2  | =c'2b2 abag2ff3/2^e/ def4z2  | 
w:   |   | 
a2g2 f2a4z2 gba2 g2fe  | defa g=fed dec3/2d/ cBA4z2  | 
w:  TESLİM  |   | 
d2=cB AGA2 B2c2 B2A2 G2F2  | B2AB AB=c2 BAAG F^EF4z2  | 
w:   |   | 
a2g2 f2a4z2 gba2 g2fe  | defa g=fed dec3/2d/ cBA4z2  | 
w:  TESLİM  |   | 
d2=cB AGA2 B2c2 B2A2 G2F2  | B2AB AB=c2 BAAG F^EF4z2  | 
w:   |   | 
a4 f2ga gfga gba2 b2=c'2  | a2g2 f2g3f=c'3/2b/ aba4z2  | 
w:  3. HANE  |   | 
a2b2 d'2=c'2 bc'b2 abag fed2  | =c'2b2 abag2ff3/2^e/ def4z2  | 
w:   |   | 
a4 f2ga gfga gba2 b2=c'2  | a2g2 f2g3f=c'3/2b/ aba4z2  | 
w:  3. HANE  |   | 
a2b2 d'2=c'2 bc'b2 abag fed2  | =c'2b2 abag2ff3/2^e/ def4z2  | 
w:   |   | 
a2g2 f2a4z2 gba2 g2fe  | defa g=fed dec3/2d/ cBA4z2  | 
w:  TESLİM  |   | 
d2=cB AGA2 B2c2 B2A2 G2F2  | B2AB AB=c2 BAAG F^EF4z2  | 
w:   |   | 
a2g2 f2a4z2 gba2 g2fe  | defa g=fed dec3/2d/ cBA4z2  | 
w:  TESLİM  |   | 
d2=cB AGA2 B2c2 B2A2 G2F2  | B2AB AB=c2 BAAG F^EF4z2  | 
w:   |   | 
z12  | f4f2g2f2e2  | d4e2f4z2  | e2f2g2a2g2f2  | \
w:  |  4. HANE  |   |   | 
=b2g2b2a4z2  | 
w:   | 
g2a2=c'2g6  | f2g2a2f6  | e2f2=b2a4g2  | \
w:   |   |   | 
f4e2d4z2  | f4e2d4c2  | 
w:   |   | 
=B4c2A4z2  | B2A2B2c2=B2c2  | d4A2d4z2  | \
w:   |   |   | 
f4f2g2f2e2  | d4e2f4z2  | 
w:  4. HANE  |   | 
e2f2g2a2g2f2  | =b2g2b2a4z2  | g2a2=c'2g6  | \
w:   |   |   | 
f2g2a2f6  | e2f2=b2a4g2  | 
w:   |   | 
f4e2d4z2  | f4e2d4c2  | =B4c2A4z2  | B2A2B2c2=B2c2  | \
w:   |   |   |   | 
d4A2d4z2  | 
w:   | 
z20  | a2g2 f2a4z2 gba2 g2fe  | defa g=fed dec3/2d/ cBA4z2  | 
w:  |  TESLİM  |   | 
d2=cB AGA2 B2c2 B2A2 G2F2  | B2AB AB=c2 BAAG F^EF4z2  | 
w:   |   | 
a2g2 f2a4z2 gba2 g2fe  | defa g=fed dec3/2d/ cBA4z2  | 
w:  TESLİM  |   | 
d2=cB AGA2 B2c2 B2A2 G2F2  | B2AB AB=c2 BAAG F^EF4z2  | 
w:   |   | 
|


